lib/logo_tmp/nrk-logo-nrk.svg

<svg width="40" height="15" viewBox="0 0 40 15" fill="none" xmlns="http://www.w3.org/2000/svg">
<path d="M-2.09808e-05 14.3333V0.334605H4.59337V14.3333H-2.09808e-05ZM10.8428 2.56258L13.4844 14.3333H8.45735L5.30305 0.334605H8.12252C8.76905 0.326214 9.39639 0.554123 9.88689 0.975455C10.3782 1.37911 10.7158 1.93948 10.8428 2.56258ZM14.1744 14.3333V0.334605H18.7678V14.3333H14.1744ZM22.2372 5.65812C21.7422 5.66294 21.2552 5.53343 20.8279 5.28346C20.4064 5.03981 20.0563 4.68962 19.8126 4.26803C19.5624 3.84072 19.4329 3.35355 19.4378 2.85837C19.4321 2.3662 19.5618 1.88194 19.8126 1.4585C20.0589 1.04149 20.4086 0.695109 20.8279 0.452939C21.2553 0.203253 21.7423 0.073767 22.2372 0.0782812C22.7292 0.0729823 23.2133 0.202584 23.6369 0.452939C24.052 0.697232 24.3981 1.04332 24.6423 1.4585C24.8929 1.88206 25.0226 2.36624 25.0172 2.85837C25.0218 3.35352 24.8923 3.8406 24.6423 4.26803C24.4007 4.68777 24.0542 5.03766 23.6369 5.28346C23.2133 5.53431 22.7288 5.66394 22.2366 5.65812H22.2372ZM25.7269 14.3333V0.334605H30.3207V14.3333H25.7269ZM36.136 7.98461C36.1489 7.99819 36.2475 8.1592 36.4317 8.46765C36.6159 8.7761 36.8557 9.17046 37.1512 9.65067C37.4469 10.1307 37.759 10.64 38.0874 11.1787C38.4157 11.7174 38.7247 12.2268 39.0143 12.7067C39.3028 13.1867 39.6313 13.7289 40 14.3333H34.9531C34.6375 13.8207 34.3515 13.3574 34.0952 12.9433C33.8389 12.5293 33.5665 12.0823 33.2778 11.6026C32.9884 11.1233 32.7023 10.6566 32.4195 10.2027C32.1368 9.74879 31.8937 9.35121 31.6905 9.0099C31.4863 8.66837 31.3449 8.43831 31.2663 8.31979C31.0713 8.02568 30.9559 7.68601 30.9314 7.33397C30.951 6.99609 31.0597 6.66947 31.2465 6.3873C31.3254 6.25585 31.47 6.0225 31.6803 5.68732C31.8906 5.35214 32.137 4.95456 32.4195 4.49451C32.7021 4.03446 32.9882 3.56454 33.2778 3.08477C33.5674 2.605 33.8398 2.15477 34.0952 1.73416C34.3519 1.31398 34.6379 0.84735 34.9531 0.334284H40L36.0962 6.70275C35.9754 6.89183 35.9073 7.10974 35.899 7.33397C35.912 7.56938 35.9942 7.7957 36.1353 7.98461H36.136Z" fill="white"/>
</svg>

<svg xmlns="http://www.w3.org/2000/svg" viewBox="0 0 40 15"><path fill="#fff" d="M0 14.333V.335h4.593v13.998H0Zm10.843-11.77 2.641 11.77H8.457L5.303.335h2.82a2.655 2.655 0 0 1 1.764.64c.491.404.829.964.956 1.588Zm3.331 11.77V.335h4.594v13.998h-4.594Zm8.063-8.675a2.78 2.78 0 0 1-2.425-1.39 2.736 2.736 0 0 1-.374-1.41 2.686 2.686 0 0 1 .375-1.4A2.813 2.813 0 0 1 20.828.454c.427-.25.914-.38 1.41-.375.491-.005.975.125 1.399.375.415.244.761.59 1.005 1.005.25.424.38.908.375 1.4.005.496-.125.983-.375 1.41a2.8 2.8 0 0 1-1.005 1.015c-.424.251-.908.38-1.4.375Zm3.49 8.675V.335h4.594v13.998h-4.594Zm10.409-6.348c.013.013.111.174.296.483.184.308.424.702.72 1.183a386.422 386.422 0 0 1 1.862 3.056c.289.48.617 1.022.986 1.626h-5.047l-.858-1.39c-.256-.414-.529-.86-.817-1.34-.29-.48-.576-.946-.858-1.4a71.077 71.077 0 0 1-.73-1.193 21.112 21.112 0 0 0-.424-.69 2.04 2.04 0 0 1-.335-.986c.02-.338.129-.665.316-.947a49.2 49.2 0 0 1 .433-.7 212.331 212.331 0 0 0 1.598-2.603l.817-1.35.858-1.4H40l-3.904 6.369c-.12.189-.189.407-.197.631.013.235.095.462.236.65h.001Z"/></svg>
